src/symbolic/apps/preferences-desktop-keyboard-shortcuts-symbolic.svg

<svg xmlns="http://www.w3.org/2000/svg" width="16" height="16" version="1.1">
 <path style="opacity:0.3;fill:none" d="M 0.5,1 H 6.5 C 6.777,1 7,1.223 7,1.5 V 6.5 C 7,6.777 6.777,7 6.5,7 H 0.5 C 0.223,7 0,6.777 0,6.5 V 1.5 C 0,1.223 0.223,1 0.5,1 Z"/>
 <path style="fill:#444444" d="M 9.5,0 C 8.669,0 8,0.67 8,1.5 V 5.5 C 8,6.33 8.669,7 9.5,7 H 13.5 C 14.331,7 15,6.33 15,5.5 V 1.5 C 15,0.67 14.331,0 13.5,0 Z M 9.56,1 C 10.851,1.13 12.149,1.12 13.44,1 13.74,0.97 14,1.26 14,1.56 V 4.44 C 14,4.74 13.74,4.96 13.44,5 12.179,5.15 10.901,5.18 9.56,5 9.2597,4.96 9,4.74 9,4.44 V 1.56 C 9,1.26 9.2597,0.97 9.56,1 Z"/>
 <path style="fill:#444444" d="M 1.5,1 C 0.66904,1 0,1.67 0,2.5 V 5.5 C 0,6.33 0.66904,7 1.5,7 H 5.5 C 6.3309,7 7,6.33 7,5.5 V 2.5 C 7,1.67 6.3309,1 5.5,1 Z M 1.56,2 C 3.2519,2.2 4.4089,2.13 5.44,2 5.7403,1.96 6,2.26 6,2.56 V 5.44 C 6,5.74 5.7403,5.96 5.44,6 4.2186,6.16 2.9415,6.18 1.56,6 1.2597,5.96 1,5.74 1,5.44 V 2.56 C 1,2.26 1.2597,1.96 1.56,2 Z"/>
 <path style="fill:#444444" d="M 1.49,8 C 0.65904,8 0,8.67 0,9.5 V 13.5 C 0,14.33 0.65874,15 1.4897,15 H 10.5 C 11.331,15 12,14.33 12,13.5 V 9.5 C 12,8.505 11.331,8 10.5,8 Z M 1.5497,9 C 4.7332,9.27 7.6664,9.23 10.44,9 10.74,8.97 11,9.26 11,9.56 V 12.44 C 11,12.74 10.74,12.97 10.44,13 7.4362,13.34 4.4729,13.33 1.5497,13 1.2494,12.97 1,12.74 1,12.44 V 9.56 C 1,9.26 1.2494,8.97 1.5497,9 Z"/>
</svg>

<svg xmlns="http://www.w3.org/2000/svg" width="16" height="16"><path d="M.5 1h6c.277 0 .5.223.5.5v5c0 .277-.223.5-.5.5h-6a.499.499 0 0 1-.5-.5v-5c0-.277.223-.5.5-.5z" opacity=".3" fill="none"/><path d="M9.5 0C8.669 0 8 .67 8 1.5v4C8 6.33 8.669 7 9.5 7h4c.831 0 1.5-.67 1.5-1.5v-4c0-.83-.669-1.5-1.5-1.5zm.06 1c1.291.13 2.589.12 3.88 0 .3-.03.56.26.56.56v2.88c0 .3-.26.52-.56.56-1.261.15-2.539.18-3.88 0-.3-.04-.56-.26-.56-.56V1.56c0-.3.26-.59.56-.56zM1.5 1C.669 1 0 1.67 0 2.5v3C0 6.33.669 7 1.5 7h4C6.33 7 7 6.33 7 5.5v-3C7 1.67 6.33 1 5.5 1zm.06 1c1.692.2 2.849.13 3.88 0 .3-.04.56.26.56.56v2.88c0 .3-.26.52-.56.56-1.221.16-2.499.18-3.88 0-.3-.04-.56-.26-.56-.56V2.56c0-.3.26-.6.56-.56zM1.49 8C.659 8 0 8.67 0 9.5v4c0 .83.659 1.5 1.49 1.5h9.01c.831 0 1.5-.67 1.5-1.5v-4c0-.995-.669-1.5-1.5-1.5zm.06 1c3.183.27 6.116.23 8.89 0 .3-.03.56.26.56.56v2.88c0 .3-.26.53-.56.56-3.004.34-5.967.33-8.89 0-.3-.03-.55-.26-.55-.56V9.56c0-.3.25-.59.55-.56z" fill="#444"/></svg>
